X:0
T:The Cuckoo's Nest
G:hornpipe
S:Peter Kennedy, The Fiddler's Tune-Book
M:C|
L:1/8
Q:1/2=92
R:hornpipe
K:G
Bc|dcBA GBdg|fdcB cedc|BABG FGAB|c2A2 A2Bc|
   dcBA GBdg|fdcB cedc|BABG FGAc|B2G2 G2 :|
Bc|dBGB dBGB|dcBA G2AB|cAFA cAFA|cBAG F2BA|
   GABc d2g2|fdcB cedc|BABG FGAc|B2G2 G2 :|
Bc|dggf gabg|agfe d2de|fede fgag|fdcB c2dc|
   BGBd gbag|fdcB cedc|BABG FGAc|B2G2 G2 :|

Almost all versions of it go down to F sharp, and the note matters to the
tune; that makes it unplayable on a G whistle, and it needs an accurate
C natural (not always easy) if played on a D whistle.  It's most often
played transposed to D, which makes it impossible on a D whistle, the
commonest size.  As for a bagpipe, forget it.  The tune probably came from
sixteenth-century England, which may explain its oddity.

The pipe chanter is not an exact fit to the authentic/plagal distinction;
nothing in mediaeval music theory corresponds to the B-final and E-final
modes, where the tonal centre is not in the middle of the range.

Pipe tunes often have a basic melody in a gapped scale, but have the gaps
filled in by upbeats or grace notes.  It is quite rare for a full setting
of a pipe tune to have the grace notes exactly matching the gapped-scale
mode of the tune.  In particular it is difficult not to use g as a frequent
grace note.

The low and high G's on the pipes are often treated differently.  The high
g is a relatively quiet note, while the low G is the loudest on the chanter
and hence the harshest dissonance against the drones (Alastair Campsie,
describing his pibroch for Hugh MacDiarmid, writes that it "resembles
nothing more than the spirit screaming against the insensate violence of
the world").  And the two notes are not exactly an octave apart.  So the
high g is used more, and there are many tunes that omit the low G while
using the high one.


11. Oddities
=== ========

Gaps can occur other places in the scale.  This one eliminates the sixth
from a mixolydian scale:

